svgs/warpinator.svg

<svg xmlns="http://www.w3.org/2000/svg" viewBox="0 0 192 192"><path fill="none" stroke="#000" stroke-linecap="round" stroke-linejoin="round" stroke-width="8" d="M85.285 65.259a26.67 26.67 0 0 0-18.838 7.792 26.593 26.593 0 0 0-7.803 18.81 26.593 26.593 0 0 0 7.803 18.811 26.67 26.67 0 0 0 37.676 0 26.593 26.593 0 0 0 7.803-18.811 26.593 26.593 0 0 0-7.803-18.81 26.67 26.67 0 0 0-18.838-7.792ZM34.696 16.5a12.789 12.789 0 0 0-9.034 3.737 12.75 12.75 0 0 0-3.742 9.02c0 3.382 1.347 6.629 3.742 9.021a12.792 12.792 0 0 0 18.068 0 12.754 12.754 0 0 0 3.742-9.021 12.75 12.75 0 0 0-3.742-9.02 12.789 12.789 0 0 0-9.034-3.737Zm7.307 127.052a16.014 16.014 0 0 0-11.312 4.679 15.965 15.965 0 0 0-4.685 11.295c0 4.235 1.686 8.301 4.685 11.295a16.014 16.014 0 0 0 22.624 0 15.966 15.966 0 0 0 4.686-11.295c0-4.235-1.687-8.301-4.686-11.295a16.014 16.014 0 0 0-11.312-4.679Zm113.996-71.288a14.093 14.093 0 0 0-9.957 4.118 14.055 14.055 0 0 0-4.125 9.942c0 3.728 1.485 7.307 4.125 9.943a14.093 14.093 0 0 0 19.913 0 14.056 14.056 0 0 0 4.125-9.943c0-3.727-1.485-7.306-4.125-9.942a14.093 14.093 0 0 0-9.956-4.118Z"/><path fill="none" stroke="#000" stroke-linecap="round" stroke-width="8" d="m43.521 40.776 24.186 30.54M111.378 90.084l25.543-1.823M54.225 139.432l14.214-23.882"/></svg>

<svg
    xmlns="http://www.w3.org/2000/svg"
    viewBox="0 0 192 192"
    id="vector">
    <path
        id="path"
        d="M 85.285 65.259 C 78.222 65.259 71.441 68.064 66.447 73.051 C 61.453 78.038 58.644 84.809 58.644 91.861 C 58.644 98.914 61.453 105.685 66.447 110.672 C 71.441 115.659 78.222 118.464 85.285 118.464 C 92.348 118.464 99.129 115.659 104.123 110.672 C 109.117 105.685 111.926 98.914 111.926 91.861 C 111.926 84.809 109.117 78.038 104.123 73.051 C 99.129 68.064 92.348 65.259 85.285 65.259 Z M 34.696 16.5 C 31.309 16.5 28.057 17.845 25.662 20.237 C 23.267 22.628 21.92 25.875 21.92 29.257 C 21.92 32.639 23.267 35.886 25.662 38.278 C 28.057 40.669 31.309 42.014 34.696 42.014 C 38.083 42.014 41.335 40.669 43.73 38.278 C 46.125 35.886 47.472 32.639 47.472 29.257 C 47.472 25.875 46.125 22.628 43.73 20.237 C 41.335 17.845 38.083 16.5 34.696 16.5 Z M 42.003 143.552 C 37.762 143.552 33.69 145.236 30.691 148.231 C 27.692 151.225 26.006 155.291 26.006 159.526 C 26.006 163.761 27.692 167.827 30.691 170.821 C 33.69 173.816 37.762 175.5 42.003 175.5 C 46.244 175.5 50.316 173.816 53.315 170.821 C 56.314 167.827 58.001 163.761 58.001 159.526 C 58.001 155.291 56.314 151.225 53.315 148.231 C 50.316 145.236 46.244 143.552 42.003 143.552 Z M 155.999 72.264 C 152.265 72.264 148.681 73.746 146.042 76.382 C 143.402 79.018 141.917 82.597 141.917 86.324 C 141.917 90.052 143.402 93.631 146.042 96.267 C 148.681 98.903 152.265 100.385 155.999 100.385 C 159.732 100.385 163.316 98.903 165.955 96.267 C 168.595 93.631 170.08 90.052 170.08 86.324 C 170.08 82.597 168.595 79.018 165.955 76.382 C 163.316 73.746 159.732 72.264 155.999 72.264 Z"
        fill="none"
        stroke="#000000"
        stroke-width="8"
        stroke-linecap="round"
        stroke-linejoin="round"/>
    <path
        id="path_1"
        d="M 43.521 40.776 L 67.707 71.316"
        fill="none"
        stroke="#000000"
        stroke-width="8"
        stroke-linecap="round"/>
    <path
        id="path_2"
        d="M 111.378 90.084 L 136.921 88.261"
        fill="none"
        stroke="#000000"
        stroke-width="8"
        stroke-linecap="round"/>
    <path
        id="path_3"
        d="M 54.225 139.432 L 68.439 115.55"
        fill="none"
        stroke="#000000"
        stroke-width="8"
        stroke-linecap="round"/>
</svg>
